src/images/bw-icons/windows.svg

<?xml version="1.0" encoding="UTF-8" standalone="no"?>
<svg width="46px" height="46px" viewBox="0 0 46 46" version="1.1" xmlns="http://www.w3.org/2000/svg" xmlns:xlink="http://www.w3.org/1999/xlink" xmlns:sketch="http://www.bohemiancoding.com/sketch/ns">
    <!-- Generator: Sketch 3.3.2 (12043) - http://www.bohemiancoding.com/sketch -->
    <title>windows</title>
    <desc>Created with Sketch.</desc>
    <defs></defs>
    <g id="Page-1" stroke="none" stroke-width="1" fill="none" fill-rule="evenodd" sketch:type="MSPage">
        <g id="windows" sketch:type="MSArtboardGroup" fill="#BDBDBD">
            <g id="icon-winstore" sketch:type="MSLayerGroup">
                <g id="Page-1" sketch:type="MSShapeGroup">
                    <path d="M44.7976111,22.0398141 L20.3629543,22.0398141 L20.3629543,4.24573392 L44.7976111,0.782565874 L44.7976111,22.0398141 L44.7976111,22.0398141 Z M44.7976111,45.5801769 L20.3629543,42.1096059 L20.3629543,23.4538054 L44.7976111,23.4538054 L44.7976111,45.5801769 L44.7976111,45.5801769 Z M18.9608081,22.0398141 L0,22.0398141 L0,7.03966214 L18.9608081,4.39379583 L18.9608081,22.0398141 L18.9608081,22.0398141 Z M18.9608081,41.9674664 L0,39.3201195 L0,23.4538054 L18.9608081,23.4538054 L18.9608081,41.9674664 L18.9608081,41.9674664 Z" id="Fill-6-Copy-9"></path>
                </g>
            </g>
        </g>
    </g>
</svg>

<svg width="46" height="46" viewBox="0 0 46 46" xmlns="http://www.w3.org/2000/svg"><title>windows</title><path d="M44.798 22.04H20.363V4.246L44.798.783V22.04zm0 23.54l-24.435-3.47V23.454h24.435V45.58zM18.96 22.04H0v-15l18.96-2.646V22.04zm0 19.927L0 39.32V23.454h18.96v18.513z" fill="#BDBDBD" fill-rule="evenodd"/></svg>
